assets/images/check.svg

<svg fill="none" height="26" viewBox="0 0 26 26" width="26" xmlns="http://www.w3.org/2000/svg"><path d="m13 .5c-6.875 0-12.5 5.625-12.5 12.5s5.625 12.5 12.5 12.5 12.5-5.625 12.5-12.5-5.625-12.5-12.5-12.5zm-2.5 18.75-6.25-6.25 1.7625-1.7625 4.4875 4.475 9.4875-9.4875 1.7625 1.775z" fill="#000"/></svg>

<svg width="26" height="26" viewBox="0 0 26 26" fill="none" xmlns="http://www.w3.org/2000/svg">
<path d="M13 0.5C6.125 0.5 0.5 6.125 0.5 13C0.5 19.875 6.125 25.5 13 25.5C19.875 25.5 25.5 19.875 25.5 13C25.5 6.125 19.875 0.5 13 0.5ZM10.5 19.25L4.25 13L6.0125 11.2375L10.5 15.7125L19.9875 6.225L21.75 8L10.5 19.25Z" fill="black"/>
</svg>
